X:1
T:Monkstown, SMD
T:Monkstown, SMD
T:Ebenezer Prout (1835-1909)
T:Public Domain Courtesy of the Cyber Hymnal™
C:Ebenezer Prout (1835-1909)
Z:Public Domain
Z:Courtesy of the Cyber Hymnal™
%%score ( 1 2 ) ( 3 4 )
L:1/8
Q:1/4=113
M:4/4
K:E
V:1 treble 
V:2 treble 
V:3 bass 
V:4 bass 
V:1
 [EB]2 | [EG]2 [EG]2 [DA]2 [DF]2 | [EB]6 [EB]2 | [FA]2 [EG]2 [Ec]3 [FA] | ([EG]2 [DF]2) z2 [FB]2 | %5
 [Gc]2 [FB]2 [Fe]2 [Fd]2 | [Fd]3 [Fc] [FB]2 [FB]2 | [EG]2 [DB]2 [Fc]2 [Ec]2 | [DB]6 [DB]2 | %9
 [Fd]2 [Ee]2 [DA]2 [EG]2 | [Ec]6 [DF]2 | [EB]2 [EB]2 [FA]2 [EG]2 | [DF]6 [DF]2 | %13
 [EG]2 [DB]2 [Ee]2 [Ed]2 | [Ec]2 [GB]2 [FA]2 [FB]2 | [EG]2 [EG]2 [FA]2 [DF]2 | E6 |] %17
V:2
 x2 | x8 | x8 | x8 | x8 | x8 | x8 | x8 | x8 | x8 | x8 | x8 | x8 | x8 | x8 | x8 | E6 |] %17
V:3
 [E,G,]2 | [E,B,]2 [E,B,]2 [F,B,]2 [A,B,]2 | [G,B,]6 [G,B,]2 | [D,B,]2 [E,B,]2 [A,,A,]3 [A,,C] | %4
 [B,,B,]4 z2 [D,B,]2 | [E,B,]2 [D,B,]2 [C,^A,]2 [B,,B,]2 | [E,^A,]3 [E,A,] [D,B,]2 [D,B,]2 | %7
 [E,B,]2 [G,B,]2 [F,B,]2 [F,^A,]2 | [B,,B,]6 B,2 | [A,B,]2 [G,B,]2 [F,A,]2 [E,B,]2 | %10
 [A,,A,]6 [A,,B,]2 | [G,,B,]2 [G,,B,]2 [A,,C]2 [^A,,C]2 | [B,,F,]6 [B,,B,]2 | %13
 [E,B,]2 [F,A,]2 [G,B,]2 [G,B,]2 | [A,C]2 [^E,=D]2 [F,C]2 [^D,B,]2 | %15
 [E,B,]2 [C,C]2 [A,,C]2 (B,A,) | [E,G,]6 |] %17
V:4
 x2 | x8 | x8 | x8 | x8 | x8 | x8 | x8 | x6 B,2 | x8 | x8 | x8 | x8 | x8 | x8 | x6 B,,2 | x6 |] %17

